X:1
T:Follow Jesus (Warner)
T:Follow Jesus (Warner)
T:From “The Diadem”
T:Anna Bartlett Warner, 1865
T:Public Domain Courtesy of the Cyber Hymnal™
C:From “The Diadem”
Z:Public Domain
Z:Courtesy of the Cyber Hymnal™
%%score ( 1 2 ) ( 3 4 )
L:1/8
Q:1/4=84
M:2/4
K:C
V:1 treble 
V:2 treble 
V:3 bass 
V:4 bass 
V:1
 [EG] | [EG][EG] [EG][EG] | [FA][EG] [EG][Ec] | [DB][Ec] [Fd][DB] | [Ec]3 [EG] | %5
w: 1.~The|world looks ve- ry|beau- ti- ful And|full of joy to|me; The|
w: 2.~I’m|but a lit- tle|pil- grim here, My|jour- ney’s just be-|gun; They|
w: 3.~Then|on my lit- tle|pil- grim- age What-|ev- er I may|meet, I’ll|
w: 4.~Then|tri- als can- not|weih me down, And|pain I need not|fear; For|
 [EG][EG] [EG][EG] | [FA][EG] [EG][Ec] | [GB][GB] [Ac][^FA] | G3 [GB] | [Fd][FB] [EG][DF] | %10
w: sun shines out in|glo- ry bright, On|ev- ery thing I|see. I|know I shall be|
w: tell me I shall|sor- row meet Be-|fore my jour- ney’s|done. The|world is full of|
w: take it— joy and|sor- row all And|lay at Je- sus’|feet. He’ll|com- fort me in|
w: when I’m close by|Je- sus’ side, Grief|can- not come too|near. Not|ev- en death can|
 [CE] [EG]2 [Ec] | [Ec][Ec] [DB][Ec] | !fermata![Fd]3 [Fd] | [Ge][EG] [Ec][GB] | [GB] [FA]2 [Ec] | %15
w: hap- py, While|in the world I|stay, For|I will fol- low|Je- sus, For|
w: sor- row And|suf- fer- ing, they|say— But|I will fol- low|Je- sus, But|
w: trou- ble, He’ll|wipe my tears a-|way; With|joy I’ll fol- low|Je- sus, With|
w: harm me, When|death I meet one|day, To|Heav’n I’ll fol- low|Je- sus, To|
 [GB][Bd] [df][GB] | [Fd] [Ec]2 [GB] | [FA][FA] [Ac][FA] | [FA][EG] [Ec][Ge] | [Fd][Fd] [Ec][DB] | %20
w: I will fol- low|Je- sus, Yes,|I will fol- low|Je- sus, Fol- low|Je- sus all the|
w: I will fol- low|Je- sus, Yes,|I will fol- low|Je- sus, Fol- low|Je- sus all the|
w: joy I’ll fol- low|Je- sus, With|joy I’ll fol- low|Je- sus, Fol- low|Je- sus all the|
w: Heav’n I’ll fol- low|Je- sus, To|Heav’n I’ll fol- low|Je- sus, Fol- low|Je- sus all the|
 [Ec]3 |] %21
w: way.|
w: way.|
w: way.|
w: way.|
V:2
 x | x4 | x4 | x4 | x4 | x4 | x4 | x4 | G3 x | x4 | x4 | x4 | x4 | x4 | x4 | x4 | x4 | x4 | x4 | %19
 x4 | x3 |] %21
V:3
 [C,C] | [C,C][C,C] [C,C][C,C] | [C,C][C,C] [C,C][C,G,] | G,G, G,G, | [C,G,]3 [C,C] | %5
 [C,C][C,C] [C,C][C,C] | [C,C][C,C] [C,C][C,G,] | [D,G,][D,B,] [D,D][D,C] | [G,B,]3 [G,D] | %9
 [G,B,][G,D] [G,,G,C][G,,G,] | [C,G,] [C,C]2 [C,G,] | [C,G,][C,G,] [C,G,][C,C] | %12
 !fermata![G,B,]3 [G,D] | [C,C][C,C] [C,C][C,C] | [F,C] [F,C]2 [C,C] | G,G, G,G, | %16
 [C,G,] [C,G,]2 [E,C] | [F,C][F,C] [F,C][F,C] | [C,C][C,C] [C,G,][C,C] | [F,A,][F,A,] G,G, | %20
 [C,G,]3 |] %21
V:4
 x | x4 | x4 | G,G, G,G, | x4 | x4 | x4 | x4 | x4 | x4 | x4 | x4 | x4 | x4 | x4 | G,G, G,G, | x4 | %17
 x4 | x4 | x2 G,G, | x3 |] %21

